X: 972
T: Hasretle Anarken Seni Ben
C: Yesârî Âsım Arsoy
O: Turkey
F: http://compmusic.upf.edu/node/140
N: saba--sarki--senginsemai--hasretle_anarken--yesari_asim_arsoy
N: makam= saba
N: form= sarki
N: usul= senginsemai = 6/4
M: 6/4
L: 1/16
K: C _2/4B _3/4d  
Q: 1/4=66
%%MIDI tuningsystem comma53
e4 f4 e2d2 edcB c8  | edce d3c B2cd cBBA A8  | 
w:  Has ret le  *  a *  *  *  nar  |  ken  *  *  *  *  *  se *  *  ni  *  *  *  ben   | 
B2c6 c2d2 c2B/A/B c2df edcB  | c8 cded cBAB A4 c/B/A/B/c2  | 
w:  gur *  bet  *  e *  *  *  lin  |  de   SAZ  | 
e4 f4 e2d2 edcB c8  | edce d3c B2cd cBBA A8  | 
w:  Has ret le  *  a *  *  *  nar  |  ken  *  *  *  *  *  se *  *  ni  *  *  *  ben   | 
B2c6 c2d2 c2B/A/B c2df edcB  | c8 cded cBAB c4 c/B/A/B/c2  | 
w:  gur *  bet  *  e *  *  *  lin  |  de   SAZ  | 
e3d c4 d2ef edce d6c2  | B3d c3B A4 ABcB B8  | 
w:  Yal *  nız  mı  *  *  ge *  *  *  zer  |  sin  *  *  *  yi ne  *  *  *  gül   | 
B2cB A4 cd2c BAB2 ABcB d3/2c/B3/2A/  | \
w:  bah *  *  *  çe *  *  le *  *  rin  | 
A8 cded cBAB c4 c/B/A/B/c2  | 
w:  de   SAZ  | 
e3d c4 d2ef edce d6c2  | B3d c3B A4 ABcB B8  | 
w:  Yal *  nız  mı  *  *  ge *  *  *  zer  |  sin  *  *  *  yi ne  *  *  *  gül   | 
B2cB A4 cd2c BAB2 ABcB d3/2c/B3/2A/  | \
w:  bah *  *  *  çe *  *  le *  *  rin  | 
A8 efgf edcB c3f egf2  | 
w:  de   SAZ  | 
e4 f4 edc2 gfeg e2f6  | e2f_1/4a g3f f2e2 f2a2 gfed c2B/A/B  | 
w:  Vec hin  gi *  *  bi  *  *  *  sol  |  gun  *  *  *  *  sa *  rı *  şın   | 
B2c4d2 e2f2 g2_7/8ag c'_1/4bag gffe  | \
w:  bir  *  *  gül  *  e *  *  lin  | 
f8 c'_1/4b_7/8ag gffe f8  | 
w:  de   SAZ  | 
f4 _1/4a4 g2f2 e2a2 g2f2 e2d2  | c2de eddc dc2B cBBA A8  | 
w:  Vec hin  gi *  bi  *  sol  |  gun  *  *  *  *  *  *  sa *  *  rı *  *  *  şın   | 
B2c6 c2d2 c2(3BAB c2df edcB  | c8 cded cBAB c4 c/B/A/B/c2  | 
w:  bir  *  gül  *  e *  *  *  lin  |  de   SAZ  | 
e3d c4 d2ef edce d6c2  | B3d c3B A4 ABcB B8  | 
w:  Yal *  nız  mı  *  *  ge *  *  *  zer  |  sin  *  *  *  yi ne  *  *  *  gül   | 
B2cB A4 cd2c BAB2 ABcB d3/2c/B3/2A/  | \
w:  bah *  *  *  çe *  *  le *  *  rin  | 
A8 cded cBAB c4 c/B/A/B/c2  | 
w:  de   SAZ  | 
e3d c4 d2ef edce d6c2  | B3d c3B A4 ABcB B8  | 
w:  Yal *  nız  mı  *  *  ge *  *  *  zer  |  sin  *  *  *  yi ne  *  *  *  gül   | 
B2cB A4 cd2c BAB2 ABcB d3/2c/B3/2A/  | \
w:  bah *  *  *  çe *  *  le *  *  rin  | 
A8 |
w:  de    | 


